X:622
T:
S:Från Gotlands fornsal.
R:kadrilj
O:Gotland
M:2/4
L:1/16
K:Bb
fe|d2f2 d2f2|b2f2 d2B2|ABcd edec|B2dB F2fe|
d2f2 d2f2|b2f2 d2B2|ABcd ecAc|B4 z2:|
|:cB|A2f2 =efge|f2af c2cB|A2f2 =efge|f4 fede|
d2f2d2f2|b2f2d2B2|ABcd ecAc|B4 z2:|
M:3/8
"4 ggr"|:fe|d2B2B2|B4 ba|ag^fgbg|f4 d2|
e2g2 ec|BAgfed|BdBdcA|B4:|

